src/assets/img/aetm-smartphones.svg

<?xml version="1.0" encoding="UTF-8"?>
<svg width="149px" height="87px" viewBox="0 0 149 87" version="1.1" xmlns="http://www.w3.org/2000/svg" xmlns:xlink="http://www.w3.org/1999/xlink">
    <!-- Generator: sketchtool 41 (35326) - http://www.bohemiancoding.com/sketch -->
    <title>017C563D-64AE-426B-BBD8-2F6155C6F6F7</title>
    <desc>Created with sketchtool.</desc>
    <defs>
        <path d="M16,77.9989566 C16,77.4472481 16.4489202,77 17.007484,77 L29.992516,77 C30.5489341,77 31,77.4426603 31,77.9989566 L31,79.0010434 C31,79.5527519 30.5510798,80 29.992516,80 L17.007484,80 C16.4510659,80 16,79.5573397 16,79.0010434 L16,77.9989566 Z" id="path-1"></path>
        <mask id="mask-2" maskContentUnits="userSpaceOnUse" maskUnits="objectBoundingBox" x="0" y="0" width="15" height="3" fill="white">
            <use xlink:href="#path-1"></use>
        </mask>
        <path d="M18,69.5093689 C18,68.9519098 18.444837,68.5 18.9955775,68.5 L28.0044225,68.5 C28.5542648,68.5 29,68.9433532 29,69.5093689 L29,71.4906311 C29,72.0480902 28.555163,72.5 28.0044225,72.5 L18.9955775,72.5 C18.4457352,72.5 18,72.0566468 18,71.4906311 L18,69.5093689 Z" id="path-3"></path>
        <mask id="mask-4" maskContentUnits="userSpaceOnUse" maskUnits="objectBoundingBox" x="0" y="0" width="11" height="4" fill="white">
            <use xlink:href="#path-3"></use>
        </mask>
    </defs>
    <g id="Page-1" stroke="none" stroke-width="1" fill="none" fill-rule="evenodd">
        <g id="aetm-web-home" transform="translate(-427.000000, -2017.000000)" stroke="#259CC2">
            <g id="produit-illu1" transform="translate(428.000000, 2018.000000)">
                <g id="Page-1" transform="translate(48.000000, 0.000000)">
                    <path d="M39.8714,84.6408 L6.6244,84.6408 C3.2564,84.6408 0.5004,81.8848 0.5004,78.5158 L0.5004,6.6248 C0.5004,3.2558 3.2564,0.4998 6.6244,0.4998 L39.8714,0.4998 C43.2404,0.4998 45.9964,3.2558 45.9964,6.6248 L45.9964,78.5158 C45.9964,81.8848 43.2404,84.6408 39.8714,84.6408 Z" id="Stroke-1"></path>
                    <path d="M38.0059,72.9401 L8.4909,72.9401 C6.3619,72.9401 4.6209,71.1991 4.6209,69.0701 L4.6209,8.4091 C4.6209,6.2811 6.3619,4.5391 8.4909,4.5391 L38.0059,4.5391 C40.1339,4.5391 41.8759,6.2811 41.8759,8.4091 L41.8759,69.0701 C41.8759,71.1991 40.1339,72.9401 38.0059,72.9401 Z" id="Stroke-3"></path>
                    <use id="Rectangle-6" mask="url(#mask-2)" stroke-width="2" xlink:href="#path-1"></use>
                </g>
                <g id="Page-1-Copy-5" transform="translate(101.000000, 8.000000)">
                    <path d="M39.8745153,76.6408 L6.62488458,76.6408 C3.25661808,76.6408 0.5004,74.1304656 0.5004,71.0617731 L0.5004,5.57902687 C0.5004,2.51033438 3.25661808,0 6.62488458,0 L39.8745153,0 C43.2437819,0 46,2.51033438 46,5.57902687 L46,71.0617731 C46,74.1304656 43.2437819,76.6408 39.8745153,76.6408 Z" id="Stroke-1"></path>
                    <path d="M41.2735619,64.9401 L5.22683812,64.9401 C2.6266865,64.9401 0.5004,63.414454 0.5004,61.5488018 L0.5004,8.39129818 C0.5004,6.52652233 2.6266865,5 5.22683812,5 L41.2735619,5 C43.8724922,5 46,6.52652233 46,8.39129818 L46,61.5488018 C46,63.414454 43.8724922,64.9401 41.2735619,64.9401 Z" id="Stroke-3"></path>
                    <use id="Rectangle-6" mask="url(#mask-4)" stroke-width="2" xlink:href="#path-3"></use>
                </g>
                <g id="Page-1-Copy" transform="translate(0.000000, 11.000000)">
                    <path d="M35.480284,74 L5.51881484,74 C2.48364691,74 0,71.5761638 0,68.6132088 L0,5.38679122 C0,2.42383618 2.48364691,0 5.51881484,0 L35.480284,0 C38.5163531,0 41,2.42383618 41,5.38679122 L41,68.6132088 C41,71.5761638 38.5163531,74 35.480284,74 Z" id="Stroke-1"></path>
                    <path d="M33.5720038,64 L7.42799624,64 C5.54215542,64 4,62.4728293 4,60.6053128 L4,7.39468721 C4,5.52804784 5.54215542,4 7.42799624,4 L33.5720038,4 C35.4569588,4 37,5.52804784 37,7.39468721 L37,60.6053128 C37,62.4728293 35.4569588,64 33.5720038,64 Z" id="Stroke-3"></path>
                    <path d="M22.7148,68.6112 C22.7148,69.9732 21.6108,71.0782 20.2478,71.0782 C18.8858,71.0782 17.7818,69.9732 17.7818,68.6112 C17.7818,67.2492 18.8858,66.1442 20.2478,66.1442 C21.6108,66.1442 22.7148,67.2492 22.7148,68.6112 Z" id="Stroke-5"></path>
                </g>
            </g>
        </g>
    </g>
</svg>

<svg width="149" height="87" viewBox="0 0 149 87" xmlns="http://www.w3.org/2000/svg" xmlns:xlink="http://www.w3.org/1999/xlink"><defs><path d="M16 78c0-.553.45-1 1.007-1h12.986c.556 0 1.007.443 1.007 1v1c0 .553-.45 1-1.007 1H17.007C16.45 80 16 79.557 16 79v-1z" id="a"/><mask id="c" x="0" y="0" width="15" height="3" fill="#fff"><use xlink:href="#a"/></mask><path d="M18 69.51c0-.558.445-1.01.996-1.01h9.008c.55 0 .996.443.996 1.01v1.98c0 .558-.445 1.01-.996 1.01h-9.008c-.55 0-.996-.443-.996-1.01v-1.98z" id="b"/><mask id="d" x="0" y="0" width="11" height="4" fill="#fff"><use xlink:href="#b"/></mask></defs><g stroke="#259CC2" fill="none" fill-rule="evenodd"><g transform="translate(49 1)"><path d="M39.87 84.64H6.625C3.256 84.64.5 81.886.5 78.517V6.626C.5 3.255 3.256.5 6.624.5H39.87c3.37 0 6.126 2.756 6.126 6.125v71.89c0 3.37-2.756 6.126-6.125 6.126z"/><path d="M38.006 72.94H8.49c-2.128 0-3.87-1.74-3.87-3.87V8.41c0-2.13 1.742-3.87 3.87-3.87h29.516c2.128 0 3.87 1.74 3.87 3.87v60.66c0 2.13-1.742 3.87-3.87 3.87z"/><use mask="url(#c)" stroke-width="2" xlink:href="#a"/></g><g transform="translate(102 9)"><path d="M39.875 76.64H6.625C3.257 76.64.5 74.13.5 71.063V5.58C.5 2.51 3.257 0 6.625 0h33.25C43.245 0 46 2.51 46 5.58V71.06c0 3.068-2.756 5.58-6.125 5.58z"/><path d="M41.274 64.94H5.227C2.627 64.94.5 63.414.5 61.55V8.39C.5 6.528 2.627 5 5.227 5h36.047C43.872 5 46 6.527 46 8.39v53.16c0 1.864-2.128 3.39-4.726 3.39z"/><use mask="url(#d)" stroke-width="2" xlink:href="#b"/></g><path d="M36.48 86H6.52C3.483 86 1 83.576 1 80.613V17.387C1 14.424 3.484 12 6.52 12h29.96c3.036 0 5.52 2.424 5.52 5.387v63.226C42 83.576 39.516 86 36.48 86z"/><path d="M34.572 76H8.428C6.542 76 5 74.473 5 72.605v-53.21C5 17.528 6.542 16 8.428 16h26.144C36.457 16 38 17.528 38 19.395v53.21C38 74.473 36.457 76 34.572 76zM23.715 80.61c0 1.363-1.104 2.468-2.467 2.468-1.362 0-2.466-1.105-2.466-2.467 0-1.36 1.104-2.466 2.466-2.466 1.363 0 2.467 1.105 2.467 2.467z"/></g></svg>
